X:1
T:Rasay House
M:C
L:1/8
N:”Slow”
S:Gow – 4th Repository  (1817)
Z:AK/Fiddler’s Companion
K:E
"Slow"G|E>G e>B (c/B/A/G/) (A/G/F/E/)|Ff f>g (a/g/)(f/e/) (e/d/)c/B/|
c>B (c/d/e/)d/ (c/B/)(A/G/) (A/G/F/E/)|B,>CE>F {EF}GEE:|
a|{a}g/f/g/a/ b>g (a/g/f/e/) ed/c/|B>ce>g aff g/f/|
e2 {d'}e'2 c'>bc'>e'|~B>c~e>f geea|(g/f/g/a/) b>a g/f/g/a/ b>e|
e'>b (c'/b/)(a/g/) gff>g|E2e2 cG B2|~B>C E>F {EF}GEE||

